packages/ffe-icons/icons/filled/lg/vignette.svg

<svg xmlns="http://www.w3.org/2000/svg" height="40" viewBox="0 -960 960 960" width="40"><path d="M162.565-180.001q-25.788 0-44.176-18.388t-18.388-44.176v-474.87q0-25.788 18.388-44.176t44.176-18.388h634.87q25.788 0 44.176 18.388t18.388 44.176v474.87q0 25.788-18.388 44.176t-44.176 18.388h-634.87ZM480.41-329.59q94.73 0 163.442-44.54 68.711-44.539 68.711-105.87t-68.711-105.87q-68.712-44.54-163.442-44.54-94.729 0-163.313 44.54-68.583 44.539-68.583 105.87t68.583 105.87q68.584 44.54 163.313 44.54Z"/></svg>

<svg xmlns="http://www.w3.org/2000/svg" viewBox="0 -960 960 960" width="32" height="32"><path d="M162.57-180q-25.79 0-44.18-18.39T100-242.57v-474.86q0-25.79 18.39-44.18T162.57-780h634.86q25.79 0 44.18 18.39T860-717.43v474.86q0 25.79-18.39 44.18T797.43-180H162.57Zm317.84-149.59q94.73 0 163.44-44.54T712.56-480q0-61.33-68.71-105.87-68.71-44.54-163.44-44.54T317.1-585.87Q248.51-541.33 248.51-480q0 61.33 68.59 105.87 68.58 44.54 163.31 44.54Z"/></svg>
